X:1
T:Green Fields of Erin [1], The
M:C
L:1/8
R:Reel
B:Stephen Grier music manuscript  collection (Book 2, c. 1883, No. 124, p. 27)
B:  http://grier.itma.ie/book-two#?c=0&m=0&s=0&cv=26&z=-396.0259%2C370.414%2C3336.1259%2C1594.3287
N:Stephen Grier (c. 1824-1894) was a piper and fiddler from
N:Newpark, Bohey, Gortletteragh, south Co. Leitrim.
Z:AK/Fiddler’s Companion
K:Amin
A2 eA cAec|AB/A/ eA dBGB|A2 eA cAeA|1 BGEF GABG:|2 BGEF GABd||
eaag eABd|efge dBGB|Aaag eAcA|BGEF GABd|
eaag eABd|efge dB G2|cBAB cdef|geaf gedB||

